source/img/sprite/level.svg

<svg viewBox="0 0 22 22" fill="none" xmlns="http://www.w3.org/2000/svg"><path d="M20 21h-3.6v-20h3.6v20Zm-7.2 0v-14.55h-3.6v14.55h3.6Zm-7.2 0v-9.1h-3.6v9.1h3.6Z" stroke="#FFFFFF" stroke-miterlimit="16" stroke-linecap="round"/></svg>

<svg width="22" height="22" viewBox="0 0 22 22" fill="none" xmlns="http://www.w3.org/2000/svg">
<path d="M20 21H16.4V1H20V21Z" stroke="#2D383F" stroke-miterlimit="16" stroke-linecap="round"/>
<path d="M12.8 21V6.45455H9.2L9.2 21H12.8Z" stroke="#2D383F" stroke-miterlimit="16" stroke-linecap="round"/>
<path d="M5.6 21V11.9091H2V21H5.6Z" stroke="#2D383F" stroke-miterlimit="16" stroke-linecap="round"/>
</svg>
